X:1
T:Morning Dream, The
L:1/8
M:3/4
I:linebreak $
K:G
V:1 treble 
V:1
 de>d | (d2 B)(gfe) | (d2 G2) (G>A) | B2 (dBAG) | A2 z (d>ed) | (d2 B)(gfe) | (d2 G2) (G>A) | %7
 B2 (cB){B} (A>G) | G2 z ||$ (gf e) | (d2 B)GAB | (c>d e2) (ge) | d2 (ed)(BG) | A2 z (gfe) | %14
 (d>B G)(cBA) | B<G E2 G>A | (Bd){d} (c>B){B} (AG) |$ G2 z || %18
